!!!OTL: 115. Das Veilchen.
!!!COM: J. F. Reichardt
!!!ODT: 1783
!!!ARE: Europa, Mitteleuropa, Deutschland
!!!SCT: B0115
!!!TXL: @@DE
!!!YEM: Copyright 1995, estate of Helmut Schaffrath.
**kern	**text
*ICvox	*
*Ivox	*
*M2/4	*
*clefG2	*
*k[f#]	*
*G:	*
!LO:TX:a:t=Langſam und getragen.	!
{8dd	1._Ein
=1	=1
8.dd	Veil-
16cc	-chen
8b	auf
8a	der
=2	=2
4g	Wie-
4a	-ſe
=3	=3
4b	ſtand,
8r}	.
{8dd	ge-
=4	=4
8.dd	-bückt
16cc	in
8b	ſich
8a	und
=5	=5
4g	un-
4a	-be-
=6	=6
4b	-kannt;
8r}	.
{8b	es
=7	=7
8a	war
8f#	ein
8aq	.
8g	her-
8e	-ʒigs
=8	=8
8e	Veilchen.
8d	.
8r}	.
{8d	Da
=9	=9
8.cc	kam
16b	eine
8a	jun-
8d	-ge
=10	=10
8.dd	Schä-
16cc	-fe-
8b}	-rin
{8d	mit
=11	=11
8.cc	leich-
16b	-tem
8a	Schritt
8d	und
=12	=12
8.dd	munterm
16cc	.
8b}	Sinn
{8a	da-
=13	=13
8.g	-her,
16a	da-
8.b	-her
16cc	die
=14	=14
16ddL	Wie-
16ggJ	.
16ddL	-ſe
16ccJ	.
8b	her,
8a	und
=15	=15
4g	ſang.
8r}	.
==	==
!!!AGN: Ballade, Romanze
!!!GTL: Balladen und Romanzen
!!!ONB: ESAC (Essen Associative Code) Database: BOEHME
!!!AMT: simple duple
!!!AIN: vox
!!!EED: Helmut Schaffrath
!!!EEV: 1.0
!!@@COMMENT:"Text von Goethe. Ʒuerſt gedruckt in Jacobi's "Jris", 2. Bd. , S. 182, Märʒ 1775. Dann
!!eingelegt in die Operette: "Erwin und Elmira". Weimar 1876."
!!@@END:
!!Text: J. W. v. Goethe
!!!URL-scan: https://archive.org/details/BoehmeVtLieder1895/page/n123/mode/2up
!!!ENC: Anna Maria Matuszewska
!!!EEV: 2024/18/06
*-	*-
